X: 477
T: Xiu hebao
%%abc-version 2.0
%%abcx-abcm2ps-target-version 5.9.1 (29 Sep 2008)
%%abc-creator hum2abc beta
%%abcx-conversion-date 2013/10/02 07:52:30
%%abc-edited-by Helmut Schaffrath
%%humdrum-veritas 2904577583
%%humdrum-veritas-data 19263729
%%continueall 1
%%barnumbers 0
L: 1/8
M: 2/4
K: G
d2B A [I:setbarnb 1]| 
d2B A | 
d2B A | 
E GA2 | 
A d A d | 
A d A G | 
E> D E G | 
D4 | 
d B A G | 
E D E G | 
D4 |]  



